X:1
T:Dilataverunt super me
T:Constantijn Huygens
T:Dilataverunt super me
T:Psalmus 35:21,22
C:Constantijn Huygens
%%score 1 { ( 2 4 ) | 3 }
L:1/8
Q:1/4=110
M:4/4
K:Bb
V:1 treble nm="Voice" snm="V"
V:2 treble nm="Organ" snm="Org."
V:4 treble 
V:3 bass 
V:1
 G8 | G4 G4 | c8 | =B4 _B4 | B4 =B4 | c4 d4 | e2 e2 d4 | z2 G2 A4 | ^F6 A2 | A4 A4 | z AAB c2 FB- | %11
w: Di-|la- ta-|ve-|runt, di-|la- ta-|ve- runt|su- per me|os su-|um; di-|xe- runt,|di- xe- runt: Eu- ge, eu-|
 BG z c2 A z f | d=e c>B A d2 (^c | d8) :: z2 D2 D2 G2 | E3 E E2 G2 | G2 ^F2 G4 | A3 A =B4 | %18
w: * ge, eu- ge! vi-|de- runt o- cu- li no- stri.|_|Vi- di- sti,|Do- mi- ne, vi-|di- sti, _|Do- mi- ne,|
[M:3/4] c4 B>B | A6 | A2 A2 d2 | c>c c2 z2 | f4 =ed |[M:4/4] ^c4 d3 A | =B2 z2 g3 d | %25
w: ne si- le-|as;|Vi- di- sti,|Do- mi- ne,|ne si- le-|as; Do- mi-|ne, Do- mi-|
 e2 z2 dd c>(B | A4) z D^FG | A>A AA BB B/B/c- | ccc z G4- | G2 GG G2 G2 | G2 G2 z2 GG | c8- | %32
w: ne, ne dis- ce- das,|_ Vi- di- sti,|Do- mi- ne, ne si- le- as; ne si-|* le- as; Do-|* mi- ne, ne dis-|ce- das, ne dis-|ce-|
 c4 =B2 A2 | =B8 :| %34
w: * das a|me.|
V:2
 z4 [B,DG-]4 | E4 D4 | =E8 | [DG-]8 | G8- | G8- | G8 | [G,!courtesy!_B,E]4 [CF]4 | [A,D]8 | %9
 [A,^F]8 | F8 | =E2 F2 F2 A2 | G2 =E2 E4 | [D^FA]8 :: [DG-]8 | G8 | D8 | D8 |[M:3/4] G6 | [A,DF]6 | %20
 F4 G2 | A6- | A4 B2 |[M:4/4] A8 | [DG]8 | [EGc]4 G4 | [A,D^F]8 | [A,D!courtesy!=F]4 [B,DG-]4 | %28
 [CEG]2 z [DFG]- [DFG-]4 | G8 | G8 | G8 | [EG]8 | [=B,DG]8 :| %34
V:3
 z4 G,4 | C4 =B,4 | C8 | G,6 F,2 | E,4 D,4 | C,4 =B,,4 | C,4 G,4 | E,4 C,4 | D,8 | D,8 | %10
 D2 CB, A,2 B,2 | G, C3 F,2 D2 | B,G, A,2 A,,4 | D,8 :: D,4 B,,2 =B,,2 | C,6 B,,2 | A,,4 G,,2 G,2 | %17
 ^F,4 G,4 |[M:3/4] C,4 G,,2 | D,6 | D2 C2 B,2 | A,4 F,2- | F,2 G,4 |[M:4/4] A,4 ^F,4 | G,4 G,,4 | %25
 C,4 =B,,2 C,2 | D,4 D,,4 | D,4 G,3 C,- | C,2 z =B,,- B,,4 | C,8 | C,8 | C,4 B,,2 A,,2 | G,,8 | %33
 G,,8 :| %34
V:4
 x8 | G8- | G8- | x8 | B,4 D4 | E4 D4 | C4 =B,4 | x8 | x8 | x8 | A,2 C4 D2 | C6 D2 | DC A,6 | x8 :: %14
 x8 | E8 | A,4 [B,D]4 | A,4 [G,D]4 |[M:3/4] E4 D2 | x6 | x6 | F4 D2 | D6 |[M:4/4] =E4 D4 | %24
 =B,4 _B,4 | E4 D2 [CE]2 | x8 | x8 | x8 | =E4 _E4 | [CD]4 [CE]4 | [C=E]4 D2 C2 | B,4 A,4 | G,8 :| %34

